X:20
T:Bean Dubh a' Ghleanna
R:slow air
D:Seamus Ennis
Z:id:hn-slowair-20
M:3/4
L:1/8
Q:1/4=60
K:G
D | G>A B>c d>B | G2 GB/d/ g2 | a4 g>e | fd3 cA | B4 GA/B/ | c3B A2 | A/G/F/A/ HG2z :|
(3d/e/f/ | g4 (3efg | a4 ba | g3 agf | d4 cA | B3A GB/d/ | g4 (3efg | a4 bc' | b2 a2 Hg2 |
dc/A/ B>c A>F | G2 GB/d/ g2 | a4 g>e | fd3 cA | B4 GA/B/ | c3B A2 | A/G/F/A/ HG2z || 

